X:1
T:Melmore, LM
T:William Martin, 1864
T:Melmore, LM
T:Public Domain
C:William Martin, 1864
Z:Public Domain
%%score ( 1 2 ) 3
L:1/8
M:4/4
K:D
V:1 treble 
V:2 treble 
V:3 bass 
V:1
 [FA]2 | [FA]3 [FA] [^E^G][FA][GB][FA] | [DF]6 [DF]2 | [EG]3 [DF] [CE][DF][EG][CA] | [DF]6 D2 | %5
 [GB]3 [GB] [GB][Bd][Ac][GB] | [FA]6 [Fd]2 | [DF]3 [GB] [FA][EG][CE]C | D6 |] %9
V:2
 x2 | x8 | x8 | x8 | x6 D2 | x8 | x8 | x7 C | D6 |] %9
V:3
 [D,D]2 | [D,D]3 [D,D] [D,D][D,D][D,D][D,D] | [D,A,]6 [D,A,]2 | %3
 [A,,A,]3 [A,,A,] [A,,A,][A,,A,][A,,A,][A,,A,] | [D,A,]6 [D,D]2 | %5
 [G,D]3 [G,D] [G,D][G,D][G,D][G,D] | [D,D]6 [D,A,]2 | [D,A,]3 [G,,D] [A,,D][A,,A,][A,,A,][A,,G,] | %8
 [D,F,]6 |] %9

